X: 051427
T: Eireann go Brach
S: B.Breathnach: "Ceol Rince na hEireann" II/42 (gan ainm)
Z: B.Black
L: 1/8
M: 6/8
R: jig
K: Ador
e/d/|cAA eAA|aga e2d|cAA eAA|Bc/d/c Bed|
cAA eAA|aga e2d|cd/e/c BAB|cAA A2 :|
A/B/|c=cc e^cA|dAd daa|c=cc e^cA|dcd B2B|
c=cc e^cA|dAd daa|cd/e/c BAB|cAA A2 :|
